X:1
T:Title
%%score 1 { 2 | ( 3 4 ) }
L:1/8
Q:1/4=44
M:3/4
K:C
V:1 treble nm="Voice"
V:2 treble nm="Piano"
V:3 bass 
V:4 bass 
V:1
"^Largo" z6 | z6 | z6 | z2 z2 z!p! E | G G c3 G | _B A A3 G | F E G2 A2 | G4 z G | c3 B c B | %9
 c d e3 E | G A G2 ^F2 | E4 z2 | z6 | z2 z2 z!p! G | c3 B c B | c d e3 E | G A G2 ^F2 | E4 z E | %18
 F3 E F E | ^G B A3 E | F3 E F E | c B A2 z2 | z6 | z2 z2 z!p! E | E E E2 E2 | F2 E2 z E | %26
 E E A2 c2 | B4 z E | F3 F E ^D | E2 E2 z E | F F F2 E ^D | E4 z E | E3 D E ^F | ^F2 E3 E | %34
 E E B2 A2 | A2 ^G2 z E | F3 F F F | (^GB) A2 z A | A A B3 B | (B2 A2) z2 | z6 | z2 z2 z!p! E | %42
 E2 E2 E2 | E6 |] %44
V:2
!mp! (3([CE]/!<(![G,C]/[CE]/ (3[EG]/[CE]/[EG]/)!<)!!>(! (3([DF]/[B,D]/[DF]/ (3[FB]/[DF]/[Bd]/)!>)!!mp!!<(! (3([FG]/[B,F]/[DF]/ (3[FB]/[DF]/!<)![FB]/) | %1
!mf!!>(! (3([Fc]/[CF]/[Fc]/ (3[cf]/[Fc]/[cf]/)!>)!!mp! (3([Ec]/[CE]/[Ec]/ (3[ce]/[Ec]/[ce]/)!p! (3([CF]/[_A,C]/[CF]/ (3[F_A]/[CF]/[FA]/) | %2
!mf!!>(! (3([EG]/[B,E]/[EG]/ (3[GB]/[EG]/[GB]/)!>)!!p!!<(! (3([FA]/[CF]/[FA]/ (3[Ac]/[FA]/[Ac]/)!<)!!mp!!>(! (3([GB]/[DG]/[GB]/ (3[Bd]/[GB]/[Bd]/)!>)! | %3
!p! (3([EG]/[CE]/[EG]/ (3[Gc]/[EG]/[Gc]/) (3([EG]/[CE]/[EG]/ (3[Gc]/[EG]/[Gc]/) (3([Gc]/[EG]/[Gc]/ (3[ce]/[Gc]/[ce]/) | %4
!p! (3([EG]/[CE]/[EG]/ (3[Gc]/[EG]/[Gc]/) (3([EG]/[CE]/[EG]/ (3[Gc]/[EG]/[Gc]/) (3([Gc]/[EG]/[Gc]/ (3[ce]/[Gc]/[ce]/) | %5
!p! (3([FA]/[CF]/[FA]/ (3[Ac]/[FA]/[Ac]/) (3([EG]/[CE]/[EG]/ (3[Gc]/[EG]/[Gc]/) (3([GB]/[DG]/[GB]/ (3[Bd]/[GB]/[Bd]/) | %6
!p! (3([FG]/[B,F]/[FG]/ (3[GB]/[FG]/[GB]/) (3([EG]/[CE]/[EG]/ (3[Gc]/[EG]/[Gc]/) (3([FA]/[CF]/[FA]/ (3[Ac]/[FA]/[Ac]/) | %7
 (3([EG]/[CE]/[EG]/ (3[Gc]/[EG]/[Gc]/) (3([EG]/[CE]/[EG]/ (3[Gc]/[EG]/[Gc]/) (3([EG]/[CE]/[EG]/ (3[Gc]/[EG]/[Gc]/) | %8
 (3([EG]/[CE]/[EG]/ (3[Gc]/[EG]/[Gc]/) (3([D^G]/[B,D]/[DG]/ (3[GB]/[DG]/[GB]/) (3([DG]/[B,D]/[DG]/ (3[GB]/[DG]/[GB]/) | %9
!<(! (3([EA]/[CE]/[EA]/ (3[Ac]/[EA]/[Ac]/)!<)!!>(! (3([^GB]/[DG]/[GB]/ (3[Bd]/[GB]/[Bd]/)!>)!!p! (3([Ac]/[EA]/[Ac]/ (3[ce]/[Ac]/[ce]/) | %10
 (3([EG]/[B,E]/[EG]/ (3[GB]/[EG]/[GB]/) (3([E^F]/[CE]/[EF]/ (3[FA]/[EF]/[FA]/) (3([EF]/[B,^D]/[EF]/ (3[FA]/[EF]/[FA]/) | %11
 (3([EG]/[B,E]/[EG]/ (3[GB]/[EG]/[GB]/)!>(! (3([EG]/[B,E]/[EG]/ (3[GB]/[EG]/[GB]/) (3([EG]/[B,E]/[EG]/ (3[GB]/[EG]/[GB]/)!>)! | %12
!pp! (3([FA]/[B,F]/[DA]/ (3[Ad]/[DA]/[Ad]/)!<(! (3([FB]/[DF]/[FB]/ (3[Bf]/[FB]/[Bf]/)!<)!!mp!!>(! (3([FG]/[B,F]/[FG]/ (3[Bf]/[FG]/!>)![Bf]/) | %13
!pp! (3([ce]/[EG]/[ce]/ (3[eg]/[Gc]/[eg]/) (3([Gc]/[CE]/[Gc]/ (3[ce]/[Gc]/[ce]/) (3([EG]/[CE]/[EG]/ (3[Gc]/[EG]/[Gc]/) | %14
!p! (3([EG]/[CE]/[EG]/ (3[Gc]/[EG]/[Gc]/) (3([D^G]/[B,D]/[DG]/ (3[GB]/[DG]/[GB]/) (3([DG]/[B,D]/[DG]/ (3[GB]/[DG]/[GB]/) | %15
 (3([EA]/[CE]/[EA]/ (3[Ac]/[EA]/[Ac]/) (3([^GB]/[DG]/[GB]/ (3[Bd]/[GB]/[Bd]/) (3([Ac]/[EA]/[Ac]/ (3[ce]/[Ac]/[ce]/) | %16
 (3([EG]/[B,E]/[EG]/ (3[GB]/[EG]/[GB]/) (3([E^F]/[CE]/[EF]/ (3[FA]/[EF]/[FA]/) (3([EF]/[B,^D]/[EF]/ (3[FA]/[EF]/[FA]/) | %17
 (3([EG]/[B,E]/[EG]/ (3[GB]/[EG]/[GB]/) (3([EG]/[B,E]/[EG]/ (3[GB]/[EG]/[GB]/) (3([EG]/[B,E]/[EG]/ (3[GB]/[EG]/[GB]/) | %18
 (3([F^G]/[DF]/[FG]/ (3[GB]/[FG]/[GB]/) (3([FG]/[DF]/[FG]/ (3[GB]/[FG]/[GB]/) (3([FG]/[DF]/[FG]/ (3[GB]/[FG]/[GB]/) | %19
 (3([E^G]/[DE]/[EG]/ (3[GB]/[EG]/[GB]/) (3([EA]/[CE]/[EA]/ (3[Ac]/[EA]/[Ac]/) (3([EA]/[CE]/[EA]/ (3[Ac]/[EA]/[Ac]/) | %20
 (3([F^G]/[DF]/[FG]/ (3[GB]/[FG]/[GB]/) (3([FG]/[DF]/[FG]/ (3[GB]/[FG]/[GB]/) (3([FG]/[DF]/[FG]/ (3[GB]/[FG]/[GB]/) | %21
 (3([EA]/[CE]/[EA]/ (3[Ac]/[EA]/[Ac]/) (3([FB]/[CF]/[FB]/ (3[Bc]/[FB]/[Bc]/) (3([Ac]/[EA]/[Ac]/ (3[ce]/[Ac]/[ce]/) | %22
!<(! (3([AB]/[FA]/[AB]/ (3[Bd]/[FA]/[Bd]/)!<)!!mf! (3([Ac]/[DF]/[Ac]/ (3[cd]/[FA]/[cd]/)!>(! (3([^GB]/[DE]/[GB]/ (3[Bd]/[EG]/[Bd]/)!>)! | %23
!p! (3([Ac]/[CE]/[EA]/ (3[Ac]/[EA]/[Ac]/) (3([CE]/[A,C]/[CE]/ (3[EA]/[CE]/[EA]/) (3([CE]/[A,C]/[CE]/ (3[EA]/[CE]/[EA]/) | %24
 (3([CE]/[B,D]/[CE]/ (3[E^G]/[CE]/[EG]/) (3([CE]/[B,D]/[CE]/ (3[EG]/[CE]/[EG]/) (3([CE]/[B,D]/[CE]/ (3[EG]/[CE]/[EG]/) | %25
 (3([DF]/[CE]/[DF]/ (3[FA]/[DF]/[FA]/) (3([DE]/[CE]/[DF]/ (3[FA]/[DF]/[FA]/) (3([CE]/[B,D]/[CE]/ (3[EA]/[CE]/[EA]/) | %26
 (3([CE]/[B,D]/[CE]/ (3[E^G]/[CE]/[EG]/) (3([CE]/[B,D]/[CE]/ (3[EG]/[CE]/[EG]/) (3([CE]/[B,D]/[CE]/ (3[EG]/[CE]/[EG]/) | %27
 (3([DF]/[CE]/[DF]/ (3[FA]/[DF]/[FA]/) (3([DE]/[CE]/[DF]/ (3[FA]/[DF]/[FA]/) (3([CE]/[B,D]/[CE]/ (3[EA]/[CE]/[EA]/) | %28
 (3([CF]/[B,^D]/[CF]/ (3[FA]/[CF]/[FA]/) (3([CF]/[B,D]/[CF]/ (3[FA]/[CF]/[FA]/) (3([CF]/[B,D]/[CF]/ (3[FA]/[CF]/[FA]/) | %29
 (3([CE]/[B,D]/[CE]/ (3[E^G]/[CE]/[EG]/) (3([CE]/[B,D]/[CE]/ (3[EG]/[CE]/[EG]/) (3([CE]/[B,D]/[CE]/ (3[EG]/[CE]/[EG]/) | %30
 (3([CF]/[B,^D]/[CF]/ (3[FA]/[CF]/[FA]/) (3([CF]/[B,D]/[CF]/ (3[FA]/[CF]/[FA]/) (3([CF]/[B,D]/[CF]/ (3[FA]/[CF]/[FA]/) | %31
 (3([CE]/[B,D]/[CE]/ (3[E^G]/[CE]/[EG]/) (3([CE]/[B,D]/[CE]/ (3[EG]/[CE]/[EG]/) (3([CE]/[B,D]/[CE]/ (3[EG]/[CE]/[EG]/) | %32
 (3([CE]/[B,D]/[CE]/ (3[E^G]/[CE]/[EG]/) (3([CE]/[B,D]/[CE]/ (3[EG]/[CE]/[EG]/) (3([CE]/[B,D]/[CE]/ (3[EG]/[CE]/[EG]/) | %33
 (3([D^F]/[CE]/[DF]/ (3[FA]/[DF]/[FA]/) (3([DE]/[CD]/[DF]/ (3[FA]/[DF]/[FA]/) (3([CE]/[B,D]/[CE]/ (3[EA]/[CE]/[EA]/) | %34
 (3([CE]/[B,D]/[CE]/ (3[E^G]/[CE]/[EG]/) (3([CE]/[B,D]/[CE]/ (3[EG]/[CE]/[EG]/) (3([CE]/[B,D]/[CE]/ (3[EG]/[CE]/[EG]/) | %35
 (3([DF]/[CE]/[DF]/ (3[FA]/[DF]/[FA]/) (3([DE]/[CD]/[DE]/ (3[F^G]/[DF]/[EG]/) (3([CE]/[B,D]/[CE]/ (3[EA]/[CE]/[EA]/) | %36
 (3([CF]/[B,^D]/[CF]/ (3[FA]/[CF]/[FA]/) (3([CF]/[B,D]/[CF]/ (3[FA]/[CF]/[FA]/) (3([CF]/[B,D]/[CF]/ (3[FA]/[CF]/[FA]/) | %37
 (3([CE]/[B,D]/[CE]/ (3[E^G]/[CE]/[EG]/) (3([CE]/[B,D]/[CE]/ (3[EG]/[CE]/[EG]/) (3([CE]/[B,D]/[CE]/ (3[EG]/[CE]/[EG]/) | %38
 (3([CF]/[B,D]/[CF]/ (3[FA]/[CF]/[FA]/) (3([C^F]/[B,^D]/[CF]/ (3[FA]/[CF]/[FA]/) (3([B,E]/[^A,D]/[B,E]/ (3[E^G]/[B,E]/[EG]/) | %39
 (3([B,E]/[A,C]/[CE]/ (3[EA]/[CE]/[EA]/)!>(! (3([CF]/[A,C]/[CF]/ (3[FA]/[CF]/[FA]/) (3([CF]/[A,C]/[CF]/ (3[FA]/[CF]/[FA]/)!>)! | %40
!p!!>(! (3([EG]/[CE]/[EG]/ (3[Gc]/[EG]/[Gc]/)!>)!!p! (3([EG]/[CE]/[EG]/ (3[Gc]/[EG]/[Gc]/) (3([EG]/[CE]/[EG]/ (3[Gc]/[EG]/[Gc]/) | %41
 (3([CE]/[G,C]/[CE]/ (3[EG]/[CE]/[EG]/) (3([G,C]/[CE]/[EG]/ (3[Gc]/[EG]/[Gc]/) (3([G,C]/[CE]/[EG]/ (3[Gc]/[EG]/[Gc]/) | %42
 (3([CE]/[G,C]/[CE]/ (3[EG]/[CE]/[EG]/) (3([G,C]/[CE]/[EG]/ (3[Gc]/[EG]/[Gc]/) (3([G,C]/[CE]/[EG]/ (3[Gc]/[EG]/[Gc]/) | %43
 [CEGc]6 |] %44
V:3
!ped! (3z/ (C,/E,/ (3G,/E,/C,/)!ped-up!!ped! (3z/ (D,/F,/ (3B,/F,/D,/)!ped-up!!ped! (3z/ (D,/F,/ (3B,/F,/D,/)!ped-up! | %1
!ped! (3z/ (F,/_A,/ (3C/A,/F,/)!ped-up!!ped! (3z/ (E,/=A,/ (3C/A,/E,/)!ped-up!!ped! (3z/ (C,/F,/ (3_A,/F,/C,/)!ped-up! | %2
!ped! (3z/ (B,,/E,/ (3G,/E,/B,,/)!ped-up!!ped! (3z/ (C,/F,/ (3A,/F,/C,/)!ped-up!!ped! (3z/ (D,/G,/ (3B,/G,/D,/)!ped-up! | %3
!ped! (3z/ (C,/E,/ (3G,/E,/C,/)!ped-up!!ped! (3z/ (C,/E,/ (3G,/E,/C,/)!ped-up!!ped! (3z/ (C,/E,/ (3G,/E,/C,/)!ped-up! | %4
!ped! (3z/ (C,/E,/ (3G,/E,/C,/)!ped-up!!ped! (3z/ (C,/E,/ (3G,/E,/C,/)!ped-up!!ped! (3z/ (C,/E,/ (3G,/E,/C,/)!ped-up! | %5
!ped! (3z/ (C,/F,/ (3A,/F,/C,/)!ped-up!!ped! (3z/ (C,/E,/ (3G,/E,/C,/)!ped-up!!ped! (3z/ (D,/G,/ (3B,/G,/D,/)!ped-up! | %6
!ped! (3z/ (D,/F,/ (3G,/F,/D,/)!ped-up!!ped! (3z/ (C,/E,/ (3G,/E,/C,/)!ped-up!!ped! (3z/ (C,/F,/ (3A,/F,/C,/)!ped-up! | %7
!ped! (3z/ (C,/E,/ (3G,/E,/C,/)!ped-up!!ped! (3z/ (C,/E,/ (3G,/E,/C,/)!ped-up!!ped! (3z/ (C,/E,/ (3G,/E,/C,/)!ped-up! | %8
!ped! (3z/ (C,/E,/ (3^G,/E,/C,/)!ped-up!!ped! (3z/ (B,,/D,/ (3^G,/D,/B,,/)!ped-up!!ped! (3z/ (B,,/D,/ (3G,/D,/B,,/)!ped-up! | %9
!ped! (3z/ (C,/E,/ (3A,/E,/C,/)!ped-up!!ped! (3z/ (B,,/E,/ (3^G,/E,/B,,/)!ped-up!!ped! (3z/ (C,/E,/ (3A,/E,/C,/)!ped-up! | %10
!ped! (3z/ (B,,/E,/ (3G,/E,/B,,/)!ped-up!!ped! (3z/ (C,/E,/ (3^F,/E,/C,/)!ped-up!!ped! (3z/ (B,,/E,/ (3F,/E,/B,,/)!ped-up! | %11
!ped! (3z/ (B,,/E,/ (3G,/E,/B,,/)!ped-up!!ped! (3z/ (B,,/E,/ (3G,/E,/B,,/)!ped-up!!ped! (3z/ (B,,/E,/ (3G,/E,/B,,/)!ped-up! | %12
!ped! (3z/ (D,/F,/ (3A,/F,/D,/)!ped-up!!ped! (3z/ (D,/F,/ (3B,/F,/D,/)!ped-up!!ped! (3z/ (D,/F,/ (3B,/F,/D,/)!ped-up! | %13
!ped! (3z/ (C,/E,/ (3G,/E,/C,/)!ped-up!!ped! (3z/ (C,/E,/ (3G,/E,/C,/)!ped-up!!ped! (3z/ (C,/E,/ (3G,/E,/C,/)!ped-up! | %14
!ped! (3z/ (C,/E,/ (3^G,/E,/C,/)!ped-up!!ped! (3z/ (B,,/D,/ (3^G,/D,/B,,/)!ped-up!!ped! (3z/ (B,,/D,/ (3G,/D,/B,,/)!ped-up! | %15
!ped! (3z/ (C,/E,/ (3A,/E,/C,/)!ped-up!!ped! (3z/ (B,,/E,/ (3^G,/E,/B,,/)!ped-up!!ped! (3z/ (C,/E,/ (3A,/E,/C,/)!ped-up! | %16
!ped! (3z/ (B,,/E,/ (3G,/E,/B,,/)!ped-up!!ped! (3z/ (C,/E,/ (3^F,/E,/C,/)!ped-up!!ped! (3z/ (B,,/E,/ (3F,/E,/B,,/)!ped-up! | %17
!ped! (3z/ (B,,/E,/ (3G,/E,/B,,/)!ped-up!!ped! (3z/ (B,,/E,/ (3G,/E,/B,,/)!ped-up!!ped! (3z/ (B,,/E,/ (3G,/E,/B,,/)!ped-up! | %18
!ped! (3z/ (D,/F,/ (3^G,/F,/D,/)!ped-up!!ped! (3z/ (D,/F,/ (3G,/F,/D,/)!ped-up!!ped! (3z/ (D,/F,/ (3G,/F,/D,/)!ped-up! | %19
!ped! (3z/ (D,/E,/ (3^G,/E,/D,/)!ped-up!!ped! (3z/ (C,/E,/ (3A,/E,/C,/)!ped-up!!ped! (3z/ (C,/E,/ (3A,/E,/C,/)!ped-up! | %20
!ped! (3z/ (D,/F,/ (3^G,/F,/D,/)!ped-up!!ped! (3z/ (D,/F,/ (3G,/F,/D,/)!ped-up!!ped! (3z/ (D,/F,/ (3G,/F,/D,/)!ped-up! | %21
!ped! (3z/ (C,/E,/ (3A,/E,/C,/)!ped-up!!ped! (3z/ (C,/F,/ (3A,/F,/C,/)!ped-up!!ped! (3z/ (C,/E,/ (3A,/E,/C,/)!ped-up! | %22
!ped! (3z/ (D,/F,/ (3A,/F,/D,/)!ped-up!!ped! (3z/ (D,/F,/ (3A,/F,/D,/)!ped-up!!ped! (3z/ (D,/E,/ (3^G,/E,/D,/)!ped-up! | %23
!ped! (3z/ (A,,/C,/ (3E,/C,/A,,/)!ped-up!!ped! (3z/ (A,,/C,/ (3E,/C,/A,,/)!ped-up!!ped! (3z/ (A,,/C,/ (3E,/C,/A,,/)!ped-up! | %24
!ped! (3z/ (B,,/D,/ (3E,/D,/B,,/)!ped-up!!ped! (3z/ (B,,/D,/ (3E,/D,/B,,/)!ped-up!!ped! (3z/ (B,,/D,/ (3E,/D,/B,,/)!ped-up! | %25
!ped! (3z/ (A,,/D,/ (3F,/D,/A,,/)!ped-up!!ped! (3z/ (A,,/D,/ (3F,/D,/A,,/)!ped-up!!ped! (3z/ (A,,/C,/ (3E,/C,/A,,/)!ped-up! | %26
!ped! (3z/ (B,,/D,/ (3E,/D,/B,,/)!ped-up!!ped! (3z/ (B,,/D,/ (3E,/D,/B,,/)!ped-up!!ped! (3z/ (B,,/D,/ (3E,/D,/B,,/)!ped-up! | %27
!ped! (3z/ (A,,/D,/ (3F,/D,/A,,/)!ped-up!!ped! (3z/ (A,,/D,/ (3F,/D,/A,,/)!ped-up!!ped! (3z/ (A,,/C,/ (3E,/C,/A,,/)!ped-up! | %28
!ped! (3z/ (A,,/C,/ (3F,/C,/A,,/)!ped-up!!ped! (3z/ (A,,/C,/ (3F,/C,/A,,/)!ped-up!!ped! (3z/ (A,,/C,/ (3F,/C,/A,,/)!ped-up! | %29
!ped! (3z/ (B,,/D,/ (3E,/D,/B,,/)!ped-up!!ped! (3z/ (B,,/D,/ (3E,/D,/B,,/)!ped-up!!ped! (3z/ (B,,/D,/ (3E,/D,/B,,/)!ped-up! | %30
!ped! (3z/ (A,,/C,/ (3F,/C,/A,,/)!ped-up!!ped! (3z/ (A,,/C,/ (3F,/C,/A,,/)!ped-up!!ped! (3z/ (A,,/C,/ (3F,/C,/A,,/)!ped-up! | %31
!ped! (3z/ (B,,/D,/ (3E,/D,/B,,/)!ped-up!!ped! (3z/ (B,,/D,/ (3E,/D,/B,,/)!ped-up!!ped! (3z/ (B,,/D,/ (3E,/D,/B,,/)!ped-up! | %32
!ped! (3z/ (B,,/D,/ (3E,/D,/B,,/)!ped-up!!ped! (3z/ (B,,/D,/ (3E,/D,/B,,/)!ped-up!!ped! (3z/ (B,,/D,/ (3E,/D,/B,,/)!ped-up! | %33
!ped! (3z/ (A,,/D,/ (3^F,/D,/A,,/)!ped-up!!ped! (3z/ (A,,/D,/ (3F,/D,/A,,/)!ped-up!!ped! (3z/ (A,,/C,/ (3E,/C,/A,,/)!ped-up! | %34
!ped! (3z/ (B,,/D,/ (3E,/D,/B,,/)!ped-up!!ped! (3z/ (B,,/D,/ (3E,/D,/B,,/)!ped-up!!ped! (3z/ (B,,/D,/ (3E,/D,/B,,/)!ped-up! | %35
!ped! (3z/ (A,,/D,/ (3F,/D,/A,,/)!ped-up!!ped! (3z/ (A,,/D,/ (3F,/D,/A,,/)!ped-up!!ped! (3z/ (A,,/C,/ (3E,/C,/A,,/)!ped-up! | %36
!ped! (3z/ (A,,/C,/ (3F,/C,/A,,/)!ped-up!!ped! (3z/ (A,,/C,/ (3F,/C,/A,,/)!ped-up!!ped! (3z/ (A,,/C,/ (3F,/C,/A,,/)!ped-up! | %37
!ped! (3z/ (B,,/D,/ (3E,/D,/B,,/)!ped-up!!ped! (3z/ (B,,/D,/ (3E,/D,/B,,/)!ped-up!!ped! (3z/ (B,,/D,/ (3E,/D,/B,,/)!ped-up! | %38
!ped! (3z/ (C,/F,/ (3A,/F,/C,/)!ped-up!!ped! (3z/ (C,/^F,/ (3A,/F,/C,/)!ped-up!!ped! (3z/ (B,,/E,/ (3^G,/E,/B,,/)!ped-up! | %39
!ped! (3z/ (C,/E,/ (3A,/E,/C,/)!ped-up!!ped! (3z/ (C,/F,/ (3A,/F,/C,/)!ped-up!!ped! (3z/ (C,/F,/ (3A,/F,/C,/)!ped-up! | %40
!ped! (3z/ (C,/E,/ (3G,/E,/C,/)!ped-up!!ped! (3z/ (C,/E,/ (3G,/E,/C,/)!ped-up!!ped! (3z/ (C,/E,/ (3G,/E,/C,/)!ped-up! | %41
!ped! (3z/ (G,,/C,/ (3E,/C,/G,,/)!ped-up!!ped! (3z/ (G,,/C,/ (3E,/C,/G,,/)!ped-up!!ped! (3z/ (G,,/C,/ (3E,/C,/G,,/)!ped-up! | %42
!ped! (3z/ (E,,/G,,/ (3C,/G,,/E,,/)!ped-up!!ped! (3z/ (E,,/G,,/ (3C,/G,,/E,,/)!ped-up!!ped! (3z/ (E,,/G,,/ (3C,/G,,/E,,/)!ped-up! | %43
 [C,,G,,C,E,G,]6 |] %44
V:4
 C,,2 C,,2 D,,2 | F,,2 E,,2 F,,2 | B,,,2 C,,2 G,,2 | C,,2 C,,2 C,,2 | C,,2 C,,2 C,,2 | %5
 C,,2 C,,2 C,,2 | C,,2 C,,2 C,,2 | C,,2 C,,2 C,,2 | C,,2 B,,,2 B,,,2 | A,,,2 B,,,2 C,,2 | %10
 B,,,2 B,,,2 B,,,2 | E,,2 E,,2 E,,2 | F,,2 F,,2 F,,2 | C,,2 C,,2 C,,2 | C,,2 B,,,2 B,,,2 | %15
 A,,,2 B,,,2 C,,2 | B,,,2 B,,,2 B,,,2 | E,,2 E,,2 E,,2 | E,,2 E,,2 E,,2 | E,,2 E,,2 E,,2 | %20
 E,,2 E,,2 E,,2 | E,,2 F,,2 E,,2 | D,,2 F,,2 E,,2 | A,,,2 A,,,2 A,,,2 | E,,2 E,,2 E,,2 | %25
 E,,2 E,,2 E,,2 | E,,2 E,,2 E,,2 | E,,2 E,,2 E,,2 | ^D,,2 D,,2 D,,2 | E,,2 E,,2 E,,2 | %30
 ^D,,2 D,,2 D,,2 | E,,2 E,,2 E,,2 | E,,2 E,,2 E,,2 | E,,2 E,,2 E,,2 | E,,2 E,,2 E,,2 | %35
 E,,2 E,,2 E,,2 | ^D,,2 D,,2 D,,2 | E,,2 E,,2 E,,2 | ^D,,2 D,,2 E,,2 | E,,2 F,,2 F,,2 | %40
 C,,2 C,,2 C,,2 | C,,2 C,,2 C,,2 | C,,2 C,,2 C,,2 | x6 |] %44

